icons/dune.svg

<svg width="16" height="16" viewBox="0 0 16 16" fill="none" xmlns="http://www.w3.org/2000/svg">
<path fill-rule="evenodd" clip-rule="evenodd" d="M13 3.2H3L3 12.8H13V3.2ZM3 2C2.44772 2 2 2.53726 2 3.2V12.8C2 13.4627 2.44772 14 3 14H13C13.5523 14 14 13.4627 14 12.8V3.2C14 2.53726 13.5523 2 13 2H3Z" fill="#DF9947"/>
<path d="M8 10.5C6 8.10001 3.83333 7.83334 3 8.00001L2.5 13H13.5V12C12.5 12.5 10 12.9 8 10.5Z" fill="#DF9947"/>
<path d="M10 11C8.58797 10.0586 8.5 8.99999 7 8C9.5 7 13.6667 7.16666 14 7.99999V10.5C13.5 11 11.5 12 10 11Z" fill="#DF9947"/>
</svg>

<svg xmlns="http://www.w3.org/2000/svg" width="16" height="16" fill="none"><path fill="#DF9947" fill-rule="evenodd" d="M13 3.2H3v9.6h10V3.2ZM3 2c-.552 0-1 .537-1 1.2v9.6c0 .663.448 1.2 1 1.2h10c.552 0 1-.537 1-1.2V3.2c0-.663-.448-1.2-1-1.2H3Z" clip-rule="evenodd"/><path fill="#DF9947" d="M8 10.5C6 8.1 3.833 7.833 3 8l-.5 5h11v-1c-1 .5-3.5.9-5.5-1.5Z"/><path fill="#DF9947" d="M10 11c-1.412-.941-1.5-2-3-3 2.5-1 6.667-.833 7 0v2.5c-.5.5-2.5 1.5-4 .5Z"/></svg>
